iphone/Maps/Images.xcassets/Interface/Search/Categories/recycling.imageset/recycling_light.svg

<svg height="28" viewBox="0 0 28 28" width="28" xmlns="http://www.w3.org/2000/svg"><g fill="none" opacity=".898664"><circle cx="14" cy="14" fill="#747e86" fill-rule="evenodd" r="14"/><path d="m9.26178239 9.86916295 1.15760091-1.91854814.8338035-1.3842689c.3157104-.52618004 1.0766576-.52618004 1.3924045 0l1.1980847 1.99140439-.9957022 1.6675583-.809518 1.3114127zm12.91134321 4.71137135-1.2952628-2.1532667-2.8009589 1.6189875 1.7889854 2.9871066h.9147468c.6152347 0 1.1737993-.3480951 1.4489895-.8985606.1133316-.2266679.169998-.4695221.169998-.7204633 0-.2914251-.0809518-.5747509-.226668-.8338035zm-4.6303795 6.5003568h1.214271c.6152347 0 1.1737993-.3480951 1.4489895-.8985605l1.1737994-2.3395359h-3.8370963v-1.6189875l-3.2380964 3.2380964 3.2380964 3.2380964v-1.6189875zm-4.8570839-3.2380964h-3.48095054l-.67999175 1.1414147c-.24285419.4047529-.25904042.9066597-.04857083 1.3356981.22666796.4614229.70427716.7609472 1.23042077.7609472h2.97897095v-3.2380964zm-3.14095467-2.1452525 1.40041867.8418905-1.10903007-4.4442318-4.43609613 1.1090301 1.37613329.8257043-.33189668.5585646c-.28332585.4776092-.30761127 1.0604593-.05666639 1.5542669l1.31954826 2.6389751 1.83755626-3.0842483zm8.82374287-7.45562378-1.0523722-1.75668581c-.2995243-.48570839-.8257043-.78523261-1.3924046-.78523261h-2.8575438l2.5256836 4.20951317-1.3924045.83380343 4.4442317 1.1090301 1.1090301-4.44423173-1.3842689.83380345z" fill="#fff"/></g></svg>

<?xml version="1.0" encoding="UTF-8"?>
<svg width="28px" height="28px" viewBox="0 0 28 28" version="1.1" xmlns="http://www.w3.org/2000/svg" xmlns:xlink="http://www.w3.org/1999/xlink">
    <title>recycling_light</title>
    <g id="recycling_light" stroke="none" fill="none" fill-rule="evenodd">
        <path d="M14,0 C21.7319865,0 28,6.2680135 28,14 C28,21.7319865 21.7319865,28 14,28 C6.2680135,28 0,21.7319865 0,14 C0,6.2680135 6.2680135,0 14,0 Z M17.5427097,16.2238072 L14.3046133,19.4619036 L17.5427097,22.7 L17.5427461,21.0808911 L18.7570171,21.0808911 C19.3722518,21.0808911 19.9308164,20.732796 20.2060066,20.1823306 L21.379806,17.8427947 L17.5427097,17.8427947 L17.5427097,16.2238072 Z M12.6855408,17.8427583 L9.20471166,17.8427947 L8.52471991,18.9842094 C8.28186572,19.3889623 8.26567949,19.8908691 8.47614908,20.3199075 C8.70281704,20.7813304 9.18042624,21.0808547 9.70656985,21.0808547 L12.6855408,21.0808547 L12.6855408,17.8427583 Z M9.83609613,12.0952009 L5.4,13.204231 L6.77613329,14.0299353 L6.44423661,14.5884999 C6.16091076,15.0661091 6.13662534,15.6489592 6.38757022,16.1427668 L7.70711848,18.7817419 L9.54467474,15.6974936 L10.9451262,16.5394327 L9.83609613,12.0952009 Z M20.8778628,12.4272676 L18.0769039,14.0462551 L19.8658893,17.0333617 L20.7806361,17.0333617 C21.3958708,17.0333617 21.9544354,16.6852666 22.2296256,16.1348011 C22.3429572,15.9081332 22.3996236,15.665279 22.3996236,15.4143378 C22.3996236,15.1229127 22.3186718,14.8395869 22.1729556,14.5805343 L20.8778628,12.4272676 Z M15.9236736,5.7 L13.0661298,5.7 L15.5918134,9.90951317 L14.1994089,10.7433166 L18.6436406,11.8523467 L19.7526707,7.40811497 L18.3684018,8.24191842 L17.3160782,6.48523261 C17.0165539,5.99952422 16.4903739,5.7 15.9236736,5.7 Z M12.6455913,6.56634591 C12.3298444,6.04016587 11.5688972,6.04016587 11.2531868,6.56634591 L10.4193833,7.95061481 L9.26178239,9.86916295 L12.0384558,11.5367213 L12.8479738,10.2253086 L13.843676,8.5577503 Z" id="Shape" fill="#747E86"></path>
    </g>
</svg>
